src/components/00-materials/images-raw/Newspaper.svg

<svg width="96" height="96" viewBox="0 0 96 96" fill="none" xmlns="http://www.w3.org/2000/svg">
<path d="M28 30V18C28 17.4696 28.2107 16.9609 28.5858 16.5858C28.9609 16.2107 29.4696 16 30 16H74C74.5304 16 75.0391 16.2107 75.4142 16.5858C75.7893 16.9609 76 17.4696 76 18V75C76 76.3261 75.4732 77.5979 74.5355 78.5355C73.5979 79.4732 72.3261 80 71 80H23" stroke="#00008F" stroke-width="2" stroke-linecap="round" stroke-linejoin="round"/>
<path d="M20 30H28V75C28 76.3261 27.4732 77.5979 26.5355 78.5355C25.5979 79.4732 24.3261 80 23 80C21.6739 80 20.4021 79.4732 19.4645 78.5355C18.5268 77.5979 18 76.3261 18 75V32C18 31.4696 18.2107 30.9609 18.5858 30.5858C18.9609 30.2107 19.4696 30 20 30V30ZM36 24H68H36ZM54 30H68H54ZM54 36H68H54ZM54 42H68H54ZM36 30H48V42H36V30ZM36 48H68H36ZM36 54H68H36ZM54 60H68H54ZM54 66H68H54ZM54 72H68H54ZM36 60H48V72H36V60Z" stroke="#00008F" stroke-width="2" stroke-linecap="round" stroke-linejoin="round"/>
</svg>

<svg width="96" height="96" viewBox="0 0 96 96" fill="none" xmlns="http://www.w3.org/2000/svg"><path d="M28 30V18a2 2 0 012-2h44a2 2 0 012 2v57a5 5 0 01-5 5H23" stroke="#00008F" stroke-width="2" stroke-linecap="round" stroke-linejoin="round"/><path d="M20 30h8v45a5 5 0 11-10 0V32a2 2 0 012-2v0zm16-6h32-32zm18 6h14-14zm0 6h14-14zm0 6h14-14zM36 30h12v12H36V30zm0 18h32-32zm0 6h32-32zm18 6h14-14zm0 6h14-14zm0 6h14-14zM36 60h12v12H36V60z" stroke="#00008F" stroke-width="2" stroke-linecap="round" stroke-linejoin="round"/></svg>
